packages/webapp/public/images/template-logos/box.svg

<svg width="62" height="62" viewBox="0 0 62 62" fill="none" xmlns="http://www.w3.org/2000/svg">
<g clip-path="url(#clip0_497_900)">
<path d="M30.6706 46.8536C25.3792 46.8536 21.1054 42.7833 21.1054 37.492C21.1054 32.4041 25.3792 28.1303 30.6706 28.1303C35.9619 28.1303 40.2357 32.4041 40.2357 37.492C40.2357 42.7833 35.9619 46.8536 30.6706 46.8536ZM44.9165 30.1655C42.2709 25.2811 36.9795 22.0249 30.8741 22.0249C27.2108 22.0249 23.9546 23.246 21.3089 25.0776V12.0527C21.3089 10.4246 19.8843 9 18.2562 9C16.4246 9 15 10.4246 15 12.0527V37.6955C15.2035 46.2431 22.123 52.959 30.6706 52.959C36.776 52.959 42.0674 49.4993 44.713 44.6149L44.9165 30.1655Z" fill="#0071F7"/>
<path d="M44.692 44.5553L44.9071 30.1396C44.9071 30.1396 46.4132 33.0443 46.2519 37.6164C46.0905 42.1885 44.692 44.5553 44.692 44.5553Z" fill="#0071F7"/>
</g>
<defs>
<clipPath id="clip0_497_900">
<rect width="31.3056" height="44" fill="white" transform="translate(15 9)"/>
</clipPath>
</defs>
</svg>

<svg xmlns="http://www.w3.org/2000/svg" width="62" height="62" fill="none"><g clip-path="url(#A)" fill="#0071f7"><path d="M30.671 46.854c-5.291 0-9.565-4.07-9.565-9.362 0-5.088 4.274-9.362 9.565-9.362s9.565 4.274 9.565 9.362c0 5.291-4.274 9.362-9.565 9.362zm14.246-16.688c-2.646-4.884-7.937-8.141-14.042-8.141-3.663 0-6.919 1.221-9.565 3.053V12.053c0-1.628-1.425-3.053-3.053-3.053C16.425 9 15 10.425 15 12.053v25.643c.204 8.548 7.123 15.264 15.671 15.264 6.105 0 11.397-3.46 14.042-8.344l.203-14.449z"/><path d="M44.692 44.555l.215-14.416s1.506 2.905 1.345 7.477-1.56 6.939-1.56 6.939z"/></g><defs><clipPath id="A"><path fill="#fff" transform="translate(15 9)" d="M0 0h31.306v44H0z"/></clipPath></defs></svg>
